packages/icons/raw/imported/MapsPin.svg

<svg width="32" height="32" viewBox="0 0 32 32" fill="none" xmlns="http://www.w3.org/2000/svg">
<path d="M15.5 25.5C15.5 25.7762 15.7238 26 16 26C16.2761 26 16.5 25.7762 16.5 25.5H15.5ZM16.5 20.3846C16.5 20.1085 16.2761 19.8846 16 19.8846C15.7238 19.8846 15.5 20.1085 15.5 20.3846H16.5ZM23.5 20.3846V20.8846C23.7761 20.8846 24 20.6608 24 20.3846H23.5ZM8.5 20.3846H8C8 20.6608 8.22386 20.8846 8.5 20.8846V20.3846ZM11.5 13.9204H12H11.5ZM11.5 9.42308H11H11.5ZM10.8035 15.2184L10.4961 14.8241H10.4961L10.8035 15.2184ZM21.1965 15.2184L21.5039 14.8241L21.1965 15.2184ZM16.5 25.5V20.3846H15.5V25.5H16.5ZM23.5 19.8846H8.5V20.8846H23.5V19.8846ZM14.5 7H17.5V6H14.5V7ZM20 9.42308V13.9204H21V9.42308H20ZM12 13.9204L12 9.42308H11L11 13.9204H12ZM17.5 7C18.893 7 20 8.09701 20 9.42308H21C21 7.5204 19.4207 6 17.5 6V7ZM14.5 6C12.5793 6 11 7.5204 11 9.42308H12C12 8.09701 13.107 7 14.5 7V6ZM10.4961 14.8241C8.82264 16.1288 8 18.0715 8 20.3846H9C9 18.3217 9.72288 16.695 11.1109 15.6127L10.4961 14.8241ZM20.8891 15.6127C22.2771 16.695 23 18.3217 23 20.3846H24C24 18.0715 23.1774 16.1288 21.5039 14.8241L20.8891 15.6127ZM11 13.9204C11 14.2415 10.8189 14.5724 10.4961 14.8241L11.1109 15.6127C11.6102 15.2235 12 14.6252 12 13.9204H11ZM20 13.9204C20 14.6252 20.3898 15.2235 20.8891 15.6127L21.5039 14.8241C21.1811 14.5724 21 14.2415 21 13.9204H20Z" fill="black"/>
</svg>

<svg width="32" height="32" fill="none" xmlns="http://www.w3.org/2000/svg"><path d="M15.5 25.5a.5.5 0 1 0 1 0h-1Zm1-5.115a.5.5 0 0 0-1 0h1Zm7 0v.5a.5.5 0 0 0 .5-.5h-.5Zm-15 0H8a.5.5 0 0 0 .5.5v-.5Zm3-6.465h.5-.5Zm0-4.497H11h.5Zm-.697 5.795-.307-.394.307.394Zm10.393 0 .308-.394-.308.394ZM16.5 25.5v-5.115h-1V25.5h1Zm7-5.615h-15v1h15v-1ZM14.5 7h3V6h-3v1ZM20 9.423v4.497h1V9.423h-1Zm-8 4.497V9.423h-1v4.497h1ZM17.5 7C18.893 7 20 8.097 20 9.423h1C21 7.52 19.42 6 17.5 6v1Zm-3-1C12.58 6 11 7.52 11 9.423h1C12 8.097 13.107 7 14.5 7V6Zm-4.004 8.824C8.823 16.13 8 18.072 8 20.384h1c0-2.062.723-3.689 2.11-4.771l-.614-.789Zm10.393.789C22.277 16.695 23 18.322 23 20.385h1c0-2.314-.823-4.256-2.496-5.56l-.615.788ZM11 13.92c0 .322-.181.652-.504.904l.615.789c.5-.39.889-.988.889-1.693h-1Zm9 0c0 .705.39 1.303.89 1.693l.614-.789c-.323-.252-.504-.582-.504-.904h-1Z" fill="#000"/></svg>
